svgs/duotone/viruses.svg

<svg xmlns="http://www.w3.org/2000/svg" viewBox="0 0 640 512"><!--! Font Awesome Pro 6.3.0 by @fontawesome - https://fontawesome.com License - https://fontawesome.com/license (Commercial License) Copyright 2023 Fonticons, Inc. --><defs><style>.fa-secondary{opacity:.4}</style></defs><path class="fa-primary" d="M160 128C142.3 128 128 142.3 128 160c0 17.67 14.33 32 32 32s32-14.33 32-32C192 142.3 177.7 128 160 128zM624 352h-12.12c-28.51 0-42.79-34.47-22.63-54.63l8.576-8.576c6.25-6.25 6.25-16.37 0-22.62s-16.38-6.253-22.62-.0031l-8.576 8.576C546.5 294.9 512 280.6 512 252.1V240C512 231.2 504.8 224 496 224S480 231.2 480 240v12.12c0 28.51-34.47 42.79-54.63 22.63l-8.576-8.576c-6.25-6.25-16.37-6.253-22.62-.0031s-6.253 16.38-.0031 22.63l8.576 8.576C422.9 317.5 408.6 352 380.1 352H368c-8.844 0-16 7.156-16 16s7.156 16 16 16h12.12c28.51 0 42.79 34.47 22.63 54.63l-8.576 8.576c-6.25 6.25-6.253 16.37-.0031 22.62c3.125 3.125 7.222 4.691 11.32 4.691s8.188-1.562 11.31-4.688l8.576-8.576C445.5 441.1 480 455.4 480 483.9V496c0 8.844 7.156 16 16 16s16-7.156 16-16v-12.12c0-28.51 34.47-42.79 54.63-22.63l8.576 8.576c3.125 3.125 7.219 4.688 11.31 4.688s8.184-1.559 11.31-4.684c6.25-6.25 6.253-16.38 .0031-22.63l-8.576-8.576C569.1 418.5 583.4 384 611.9 384H624c8.844 0 16-7.156 16-16S632.8 352 624 352zM480 384c-17.67 0-32-14.33-32-32c0-17.67 14.33-32 32-32s32 14.33 32 32C512 369.7 497.7 384 480 384z"/><path class="fa-secondary" d="M362.7 170.7h-16.16c-38.01 0-57.05-45.96-30.17-72.84l11.44-11.44c8.332-8.332 8.331-21.83-.0012-30.17c-8.334-8.334-21.83-8.332-30.17 .002L286.2 67.66C259.3 94.54 213.3 75.51 213.3 37.49V21.33C213.3 9.542 203.8 0 192 0S170.7 9.542 170.7 21.33v16.16c0 38.01-45.96 57.05-72.84 30.17L86.4 56.23c-8.334-8.334-21.83-8.336-30.17-.002c-8.332 8.334-8.333 21.84-.0012 30.17L67.66 97.83c26.88 26.88 7.842 72.84-30.17 72.84H21.33C9.541 170.7 0 180.2 0 192c0 11.79 9.541 21.33 21.33 21.33h16.16c38.01 0 57.05 45.96 30.17 72.84L56.23 297.6c-8.332 8.334-8.328 21.84 .0043 30.17c4.168 4.168 9.621 6.248 15.08 6.248s10.92-2.082 15.08-6.25L97.83 316.3c26.88-26.88 72.84-7.842 72.84 30.17v16.16C170.7 374.5 180.2 384 192 384s21.33-9.543 21.33-21.33v-16.16c0-38.01 45.96-57.05 72.84-30.17l11.43 11.43c4.168 4.168 9.625 6.25 15.08 6.25s10.91-2.08 15.08-6.248c8.332-8.332 8.333-21.83 .0012-30.17L316.3 286.2c-26.88-26.88-7.842-72.84 30.17-72.84h16.16C374.5 213.3 384 203.8 384 192C384 180.2 374.5 170.7 362.7 170.7zM160 192C142.3 192 128 177.7 128 160c0-17.67 14.33-32 32-32s32 14.33 32 32C192 177.7 177.7 192 160 192zM240 224C231.2 224 224 216.8 224 208C224 199.2 231.2 192 240 192S256 199.2 256 208C256 216.8 248.8 224 240 224zM480 320c-17.67 0-32 14.33-32 32c0 17.67 14.33 32 32 32s32-14.33 32-32C512 334.3 497.7 320 480 320z"/></svg>

<svg xmlns="http://www.w3.org/2000/svg" viewBox="0 0 640 512"><!-- Font Awesome Pro 6.0.0-alpha2 by @fontawesome - https://fontawesome.com License - https://fontawesome.com/license (Commercial License) --><defs><style>.fa-secondary{opacity:.4}</style></defs><path d="M362.666 170.666H346.506C308.494 170.666 289.459 124.709 316.336 97.83L327.771 86.395C336.104 78.063 336.104 64.563 327.771 56.229C319.437 47.895 305.937 47.895 297.604 56.229L286.17 67.662C259.291 94.541 213.334 75.506 213.334 37.492V21.332C213.334 9.541 203.791 0 192 0S170.666 9.541 170.666 21.332V37.492C170.666 75.506 124.709 94.541 97.83 67.662L86.396 56.229C78.062 47.895 64.562 47.895 56.229 56.229C47.896 64.562 47.896 78.062 56.229 86.395L67.664 97.83C94.541 124.709 75.506 170.666 37.494 170.666H21.334C9.541 170.666 0 180.207 0 192C0 203.791 9.541 213.332 21.334 213.332H37.494C75.506 213.332 94.541 259.291 67.664 286.17L56.229 297.604C47.896 305.938 47.896 319.438 56.229 327.77C60.396 331.938 65.854 334.02 71.312 334.02S82.229 331.938 86.396 327.77L97.83 316.336C124.709 289.457 170.666 308.494 170.666 346.506V362.666C170.666 374.457 180.209 384 192 384S213.334 374.457 213.334 362.666V346.506C213.334 308.494 259.291 289.457 286.17 316.336L297.604 327.77C301.771 331.937 307.229 334.02 312.687 334.02S323.604 331.937 327.771 327.77C336.104 319.437 336.104 305.937 327.771 297.604L316.336 286.17C289.459 259.291 308.494 213.332 346.506 213.332H362.666C374.459 213.332 384 203.791 384 192C384 180.207 374.459 170.666 362.666 170.666ZM160 192C142.326 192 128 177.672 128 160C128 142.326 142.326 128 160 128S192 142.326 192 160C192 177.672 177.674 192 160 192ZM240 224C231.164 224 224 216.836 224 208C224 199.162 231.164 192 240 192S256 199.162 256 208C256 216.836 248.836 224 240 224ZM480 320C462.326 320 448 334.326 448 352C448 369.672 462.326 384 480 384S512 369.672 512 352C512 334.326 497.674 320 480 320Z" class="fa-secondary"/><path d="M160 128C142.326 128 128 142.326 128 160C128 177.672 142.326 192 160 192S192 177.672 192 160C192 142.326 177.674 128 160 128ZM624 352H611.879C583.371 352 569.094 317.531 589.252 297.373L597.828 288.797C604.078 282.547 604.078 272.422 597.828 266.172S581.453 259.922 575.203 266.172L566.627 274.748C546.469 294.906 512 280.629 512 252.119V240C512 231.156 504.844 224 496 224S480 231.156 480 240V252.119C480 280.629 445.531 294.906 425.373 274.748L416.797 266.172C410.547 259.922 400.422 259.922 394.172 266.172S387.922 282.547 394.172 288.797L402.748 297.373C422.906 317.531 408.629 352 380.121 352H368C359.156 352 352 359.156 352 368S359.156 384 368 384H380.121C408.629 384 422.906 418.469 402.748 438.627L394.172 447.203C387.922 453.453 387.922 463.578 394.172 469.828C397.297 472.953 401.391 474.516 405.484 474.516S413.672 472.953 416.797 469.828L425.373 461.252C445.531 441.094 480 455.371 480 483.879V496C480 504.844 487.156 512 496 512S512 504.844 512 496V483.879C512 455.371 546.469 441.094 566.627 461.252L575.203 469.828C578.328 472.953 582.422 474.516 586.516 474.516S594.703 472.953 597.828 469.828C604.078 463.578 604.078 453.453 597.828 447.203L589.252 438.627C569.094 418.469 583.371 384 611.879 384H624C632.844 384 640 376.844 640 368S632.844 352 624 352ZM480 384C462.326 384 448 369.672 448 352C448 334.326 462.326 320 480 320S512 334.326 512 352C512 369.672 497.674 384 480 384Z" class="fa-primary"/></svg>
